docs/assets/img/regender_xyz.svg

<svg fill="none" height="103" viewBox="0 0 950 103" width="950" xmlns="http://www.w3.org/2000/svg"><path d="m20.3662 20.9542c-5.8379 0-10.52733-.3828-17.2744-1.3877-2.918948-.4306-4.11524 3.3496-1.05274 4.7373 6.98633 3.1104 10.57524 5.9815 11.00584 17.8965v17.0352c0 14.2119-3.54099 17.2265-11.05369 20.5761-3.0625 1.3877-1.86621 5.168 1.05274 4.7374 6.74707-1.0049 11.43655-1.3877 17.22655-1.3877 6.3164 0 11.3887.2871 18.6621 1.3877 2.919.4306 4.1153-3.3497 1.0528-4.7374-8.2784-3.7324-12.4893-6.3642-12.4893-20.5761v-4.6895c0-12.7763 8.709-20.7197 20.4805-20.7197 3.8759 0 5.79.957 8.039.9092 2.1533-.0479 3.9239-2.2969 3.9239-7.7041 0-4.8809-1.6749-7.3692-6.0772-7.3692-11.4844 0-18.4228 6.6514-23.9736 14.4991-1.9141 2.7753-4.3545 1.6269-3.0625-1.627 1.0527-2.584 1.2441-5.2158 1.2441-7.417 0-2.584-2.1533-4.1631-6.5557-4.1631zm115.6568 42.1573c1.005-4.0196-4.498-5.4073-6.125-.9092-3.253 8.9482-9.953 14.6904-19.523 14.6904-12.0586 0-18.3271-4.6416-18.4707-25.1221 4.0674-.0957 9.4747-.2392 13.0637-.2392h23.638c4.69 0 5.743-2.8711 5.743-6.4121 0-2.4883-.862-6.2686-.862-9.1397 0-5.4551 1.053-9.5224 3.541-11.6279 2.154-1.8184.527-5.4551-2.775-4.4502-2.68.8613-5.694.8613-8.518.8613-4.833 0-12.106-1.1006-17.992-1.1006-18.9012 0-34.4051 5.503-34.4051 31.6299 0 27.3233 15.5039 33.1611 34.1181 33.1611 16.03 0 24.787-6.3642 28.567-21.3417zm-17.8-18.9014c-5.264 0-18.5668.0478-26.0316-.1914 1.292-14.0684 6.6992-17.2266 15.6476-17.2744 5.886 0 10.001 1.1484 13.925 5.5986 5.263 6.0293 3.11 11.8672-3.541 11.8672zm56.13 24.9306c9.091 0 16.03-4.2109 18.614-4.2109 1.34 0 2.345.957 2.345 2.3447 0 2.7754-4.211 4.3067-11.628 5.168-18.471 2.1055-27.946 6.9863-27.946 15.169 0 8.9003 7.369 14.6905 31.343 14.6905 27.85 0 39.765-8.6613 39.765-21.3898 0-8.9961-7.369-14.499-7.369-24.3564v-11.6758c0-14.2119 3.541-17.2266 11.053-20.5762 3.063-1.3877 1.866-5.1679-1.052-4.7373-6.748 1.0049-11.437 1.3877-17.275 1.3877h-1.531c-7.656 0-16.126-1.292-26.127-1.292-14.068 0-26.414 5.2159-26.414 15.0733 0 3.3974 2.105 6.6035 2.105 10.7187 0 3.3018-2.584 6.5078-2.584 10.001 0 9.7617 7.848 13.6855 16.701 13.6855zm5.981-9.1396c-5.024 0-7.848-2.1055-7.848-5.5508 0-3.4931 4.211-6.7471 4.211-10.8623 0-3.0625-.383-5.8379-.383-7.6562 0-5.8379 3.685-9.5225 12.49-9.5225 12.058 0 16.221 2.6318 16.221 17.6572v12.25c0 10.5752 8.949 18.5186 8.949 25.8877 0 5.7422-4.451 8.4698-17.897 8.4698-19.428 0-22.921-1.3399-22.921-5.2159 0-2.5361 2.154-4.5459 12.729-6.2207 9.379-1.4834 16.221-4.3066 16.221-11.9629 0-3.9716-2.392-9.4746-9.857-9.4746-3.35 0-7.895 2.2012-11.915 2.2012zm128.529 3.1104c1.005-4.0196-4.498-5.4073-6.125-.9092-3.254 8.9482-9.953 14.6904-19.523 14.6904-12.059 0-18.327-4.6416-18.471-25.1221 4.068-.0957 9.475-.2392 13.064-.2392h23.638c4.69 0 5.742-2.8711 5.742-6.4121 0-2.4883-.861-6.2686-.861-9.1397 0-5.4551 1.053-9.5224 3.541-11.6279 2.153-1.8184.527-5.4551-2.775-4.4502-2.68.8613-5.695.8613-8.518.8613-4.833 0-12.106-1.1006-17.992-1.1006-18.901 0-34.405 5.503-34.405 31.6299 0 27.3233 15.504 33.1611 34.118 33.1611 16.03 0 24.787-6.3642 28.567-21.3417zm-17.801-18.9014c-5.263 0-18.566.0478-26.031-.1914 1.292-14.0684 6.699-17.2266 15.648-17.2744 5.885 0 10.001 1.1484 13.925 5.5986 5.263 6.0293 3.11 11.8672-3.542 11.8672zm54.264-23.2559c-5.838 0-10.527-.3828-17.274-1.3877-2.919-.4306-4.115 3.3496-1.053 4.7373 7.513 3.3496 11.054 6.3643 11.054 20.5762v14.3555c0 14.2119-3.541 17.2265-11.054 20.5761-3.062 1.3877-1.866 5.168 1.053 4.7374 6.747-1.0049 11.388-1.3877 17.226-1.3877 5.12 0 9.284.4785 15.313 1.3877 2.919.4306 4.115-3.3497 1.053-4.7374-6.413-2.871-9.14-6.3642-9.14-20.5761v-2.3448c0-17.4179 13.542-28.0888 23.734-28.0888 5.982 0 8.805 2.7754 8.805 7.5127 0 5.1201-3.158 13.3506-3.158 28.6631v.0478c0 9.4746-3.637 12.2979-9.188 14.7861-3.062 1.3877-1.866 5.168 1.053 4.7374 6.029-.9092 10.192-1.3877 15.312-1.3877 5.791 0 10.48.3828 17.179 1.3877 2.919.4306 4.115-3.3497 1.053-4.7374-7.226-3.206-10.767-6.125-11.054-18.9013.287-11.0537 3.637-19.2363 3.637-25.6006 0-11.1494-7.848-15.6475-16.7-15.6475-13.59 0-22.873 5.4073-28.281 13.0635-1.914 2.7754-4.354 1.627-3.062-1.6269.861-2.1534 1.244-4.2588 1.244-6.0293 0-2.584-2.153-4.1153-6.556-4.1153zm152.79 58.8574c-7.512-3.3496-11.054-6.3642-11.054-20.5761v-33.4961c0-14.2119 3.542-17.22658 11.054-20.57619 3.063-1.3877 1.866-5.16797074-1.053-4.737307-6.316.957027-10.862 1.339847-16.221 1.387697-5.455-.04785-10.097-.38281-16.605-1.387697-2.919-.43066374-4.115 3.349607-1.052 4.737307 4.067 1.81836 6.125 3.68457 8.661 7.46489 2.057 3.0625 2.679 5.5507 2.679 7.5126 0 1.1006-.526 1.6749-1.722 1.6749-2.919 0-8.901-2.1534-20.576-2.1534-14.069 0-26.415 5.8858-26.415 17.0352 0 5.0723 2.728 9.8574 2.728 15.9824 0 5.3594-3.206 10.5752-3.206 16.1738 0 11.1016 7.848 15.5996 16.7 15.5996 13.59 0 22.586-5.5986 28.28-13.0156 1.723-2.249 3.685-1.1484 3.063 1.627-.718 3.3017-1.148 5.5029-1.148 7.3213 0 2.4404 3.206 2.7754 7.56 2.7754 5.838 0 10.527.3828 17.274 1.3877 2.919.4306 4.116-3.3497 1.053-4.7374zm-57.948-11.9628c0-5.503 4.833-10.5752 4.833-17.0352 0-5.168-1.005-9.8574-1.005-12.9199 0-6.9864 3.685-11.4844 12.489-11.4844 12.011 0 16.174 2.6797 16.174 17.7051v3.1582c0 17.3701-13.494 28.041-23.686 28.041-5.982 0-8.805-2.7754-8.805-7.4648zm136.281-4.7373c1.005-4.0196-4.498-5.4073-6.125-.9092-3.254 8.9482-9.953 14.6904-19.523 14.6904-12.059 0-18.327-4.6416-18.471-25.1221 4.067-.0957 9.475-.2392 13.064-.2392h23.638c4.69 0 5.742-2.8711 5.742-6.4121 0-2.4883-.861-6.2686-.861-9.1397 0-5.4551 1.053-9.5224 3.541-11.6279 2.153-1.8184.526-5.4551-2.775-4.4502-2.68.8613-5.695.8613-8.518.8613-4.833 0-12.106-1.1006-17.992-1.1006-18.901 0-34.405 5.503-34.405 31.6299 0 27.3233 15.504 33.1611 34.118 33.1611 16.03 0 24.787-6.3642 28.567-21.3417zm-17.801-18.9014c-5.263 0-18.566.0478-26.031-.1914 1.292-14.0684 6.699-17.2266 15.648-17.2744 5.885 0 10.001 1.1484 13.924 5.5986 5.264 6.0293 3.111 11.8672-3.541 11.8672zm54.312-23.2559c-5.838 0-10.527-.3828-17.274-1.3877-2.919-.4306-4.116 3.3496-1.053 4.7373 6.986 3.1104 10.575 5.9815 11.006 17.8965v17.0352c0 14.2119-3.541 17.2265-11.054 20.5761-3.063 1.3877-1.866 5.168 1.053 4.7374 6.747-1.0049 11.436-1.3877 17.226-1.3877 6.317 0 11.389.2871 18.662 1.3877 2.919.4306 4.116-3.3497 1.053-4.7374-8.278-3.7324-12.489-6.3642-12.489-20.5761v-4.6895c0-12.7763 8.709-20.7197 20.48-20.7197 3.876 0 5.79.957 8.039.9092 2.154-.0479 3.924-2.2969 3.924-7.7041 0-4.8809-1.675-7.3692-6.077-7.3692-11.484 0-18.423 6.6514-23.974 14.4991-1.914 2.7753-4.354 1.6269-3.062-1.627 1.053-2.584 1.244-5.2158 1.244-7.417 0-2.584-2.153-4.1631-6.556-4.1631zm60.867 62.1114c.861-.8614 1.723-2.6319 3.35-4.1153 1.579-1.4355 3.062-2.2969 3.924-3.2539 1.722-1.8183 1.722-3.541 0-5.3594-.862-.957-2.584-1.914-3.924-3.3496-1.531-1.6269-2.441-3.206-3.35-4.1152-1.77-1.7227-3.589-1.7227-5.359 0-1.005 1.0049-1.771 2.6797-3.446 4.1152-1.674 1.4356-3.158 2.584-3.923 3.3496-1.819 1.8184-1.675 3.3975 0 5.3594.813.957 2.44 1.7705 3.923 3.2539 1.723 1.6748 2.393 3.0625 3.446 4.1153 1.818 1.7705 3.589 1.8183 5.359 0zm70.246-39.9561-1.627 2.249c-1.005 1.4356-1.962 2.2012-3.158 2.2012-1.1 0-2.249-.4307-4.45-2.7275l-7.369-7.7041c-2.776-2.8711-3.541-4.0196-3.589-6.0772-.048-2.9668 3.254-4.8809 6.268-5.7422 3.781-1.1006 3.254-5.5986 0-5.5986-6.364 0-11.819 1.292-18.183 1.292-6.795 0-12.011-.4785-19.045-1.292-3.637-.4307-3.685 3.9717-1.244 4.8808 6.555 2.3926 9.57 4.7852 17.944 13.3985l5.982 6.1728c4.689 4.833 3.923 8.709-1.532 15.0254l-10.814 12.5371c-5.407 6.2207-8.566 6.4121-11.485 7.5606-3.158 1.1963-2.775 5.3594 1.005 5.2637 6.556-.1436 10.48-1.3877 15.074-1.3877 5.838 0 10.479 1.2919 16.987 1.2919 3.158 0 3.206-5.0244 0-5.5986-3.78-.6699-7.274-1.8183-8.183-5.2637-.765-2.7753-.717-5.455 4.403-12.5849l1.483-2.0098c1.005-1.4355 1.962-2.2012 3.158-2.2012 1.101 0 2.249.4307 4.45 2.7276l7.178 7.5127c2.776 2.9189 3.493 4.0195 3.541 6.0771.048 2.9668-3.206 4.8809-6.221 5.7422-3.78 1.1006-3.253 5.5986 0 5.5986 6.173 0 11.485-1.2919 17.658-1.2919 6.938 0 12.345.4306 19.571 1.2919 3.637.4307 3.685-3.9716 1.244-4.8808-6.556-2.3926-9.618-4.6416-17.944-13.3984l-5.79-6.0293c-4.259-4.4502-3.589-8.7569 1.196-14.5948l10.862-13.1592c5.168-6.3164 8.518-6.4121 11.485-7.5605 3.11-1.1963 2.775-5.3594-1.005-5.2637-6.556.1436-10.527 1.3877-15.121 1.3877-5.647 0-10.145-1.292-16.461-1.292-3.158 0-3.206 5.0244 0 5.5987 3.732.6699 7.273 1.8183 8.182 5.2636.718 2.7754.766 5.3594-4.45 12.585zm85.463 24.165c0 2.7754-4.211 4.3067-11.628 5.168-18.47 2.1055-27.945 6.9863-27.945 15.169 0 8.9003 7.369 14.6905 31.343 14.6905 27.849 0 39.764-8.6613 39.764-21.3898 0-8.9961-7.369-14.499-7.369-24.3564v-11.6758c0-14.2119 3.541-17.2266 11.054-20.5762 3.062-1.3877 1.866-5.1679-1.053-4.7373-6.747 1.0049-11.436 1.3877-17.274 1.3877-6.173.1436-8.566 1.7705-8.566 6.7471 0 7.0342.479 13.2549.67 16.7002l.718 11.915c.622 10.5752 8.948 18.5186 8.948 25.8877 0 5.7422-4.45 8.4698-17.896 8.4698-19.428 0-22.921-1.3399-22.921-5.2159 0-2.5361 2.153-4.5459 12.728-6.2207 9.379-1.4834 16.222-4.3066 16.222-11.9629 0-3.8281-2.393-9.1396-9.379-9.1396-3.349 0-7.082 1.8662-10.479 1.8662-5.025 0-7.848-2.1055-7.848-5.5508 0-3.4931 3.924-6.5556 4.546-14.5469l.861-10.5273c.527-6.4121-2.344-8.4219-8.47-8.4219h-1.626c-5.503 0-9.954-.4785-16.318-1.3877-2.919-.4306-4.067 3.3496-1.053 4.7373 6.987 3.1582 10.289 8.7569 10.289 16.8438 0 5.79-3.063 10.3359-3.063 14.3076 0 9.7617 7.848 13.6855 16.7 13.6855 8.183 0 14.404-4.2109 16.7-4.2109 1.34 0 2.345.957 2.345 2.3447zm113.313-38.042c2.057-2.3447 2.919-4.498 2.919-5.9814s-1.245-2.2969-4.116-2.2969h-45.889c-3.111 0-6.412.0479-9.379-.9092-3.589-1.1005-5.407 2.9668-3.015 4.9766 3.685 3.0625 4.355 5.8379 4.355 11.0537 0 4.1631-.766 9.4268-1.388 13.1592-.67 3.9717 4.689 5.0723 5.599 1.1484 2.105-9.1396 4.833-13.8769 8.517-17.1787 5.12-4.5937 10.862-6.2685 16.365-6.2685 4.786 0 6.078.6699 6.078 1.8662s-.527 2.584-4.499 7.1777l-33.543 38.9033c-2.058 2.3448-2.919 4.4981-2.919 5.9815s1.244 2.2969 4.115 2.2969h49.718c3.11 0 6.412-.0479 9.379.9091 3.588 1.1006 5.407-2.9668 3.014-4.9765-3.972-3.3018-4.354-7.1299-4.354-13.4463 0-4.9287.622-11.1973 1.387-15.5518.67-3.6367-4.641-5.2636-5.55-1.3877-2.393 10.4795-5.121 15.791-8.566 19.8106-5.742 6.6992-13.398 8.6611-20.193 8.6611-4.785 0-6.077-.6699-6.077-1.8662s.526-2.584 4.498-7.1777z" fill="#00f"/></svg>

<svg width="950" height="103" viewBox="0 0 950 103" fill="none" xmlns="http://www.w3.org/2000/svg">
<path d="M20.3662 20.9542C14.5283 20.9542 9.83887 20.5714 3.0918 19.5665C0.172852 19.1359 -1.02344 22.9161 2.03906 24.3038C9.02539 27.4142 12.6143 30.2853 13.0449 42.2003V59.2355C13.0449 73.4474 9.50391 76.462 1.99121 79.8116C-1.07129 81.1993 0.125 84.9796 3.04395 84.549C9.79102 83.5441 14.4805 83.1613 20.2705 83.1613C26.5869 83.1613 31.6592 83.4484 38.9326 84.549C41.8516 84.9796 43.0479 81.1993 39.9854 79.8116C31.707 76.0792 27.4961 73.4474 27.4961 59.2355V54.546C27.4961 41.7697 36.2051 33.8263 47.9766 33.8263C51.8525 33.8263 53.7666 34.7833 56.0156 34.7355C58.1689 34.6876 59.9395 32.4386 59.9395 27.0314C59.9395 22.1505 58.2646 19.6622 53.8623 19.6622C42.3779 19.6622 35.4395 26.3136 29.8887 34.1613C27.9746 36.9366 25.5342 35.7882 26.8262 32.5343C27.8789 29.9503 28.0703 27.3185 28.0703 25.1173C28.0703 22.5333 25.917 20.9542 21.5146 20.9542H20.3662ZM136.023 63.1115C137.028 59.0919 131.525 57.7042 129.898 62.2023C126.645 71.1505 119.945 76.8927 110.375 76.8927C98.3164 76.8927 92.0479 72.2511 91.9043 51.7706C95.9717 51.6749 101.379 51.5314 104.968 51.5314H128.606C133.296 51.5314 134.349 48.6603 134.349 45.1193C134.349 42.631 133.487 38.8507 133.487 35.9796C133.487 30.5245 134.54 26.4572 137.028 24.3517C139.182 22.5333 137.555 18.8966 134.253 19.9015C131.573 20.7628 128.559 20.7628 125.735 20.7628C120.902 20.7628 113.629 19.6622 107.743 19.6622C88.8418 19.6622 73.3379 25.1652 73.3379 51.2921C73.3379 78.6154 88.8418 84.4532 107.456 84.4532C123.486 84.4532 132.243 78.089 136.023 63.1115ZM118.223 44.2101C112.959 44.2101 99.6562 44.2579 92.1914 44.0187C93.4834 29.9503 98.8906 26.7921 107.839 26.7443C113.725 26.7443 117.84 27.8927 121.764 32.3429C127.027 38.3722 124.874 44.2101 118.223 44.2101ZM174.353 69.1407C183.444 69.1407 190.383 64.9298 192.967 64.9298C194.307 64.9298 195.312 65.8868 195.312 67.2745C195.312 70.0499 191.101 71.5812 183.684 72.4425C165.213 74.548 155.738 79.4288 155.738 87.6115C155.738 96.5118 163.107 102.302 187.081 102.302C214.931 102.302 226.846 93.6407 226.846 80.9122C226.846 71.9161 219.477 66.4132 219.477 56.5558V44.88C219.477 30.6681 223.018 27.6534 230.53 24.3038C233.593 22.9161 232.396 19.1359 229.478 19.5665C222.73 20.5714 218.041 20.9542 212.203 20.9542H210.672C203.016 20.9542 194.546 19.6622 184.545 19.6622C170.477 19.6622 158.131 24.8781 158.131 34.7355C158.131 38.1329 160.236 41.339 160.236 45.4542C160.236 48.756 157.652 51.962 157.652 55.4552C157.652 65.2169 165.5 69.1407 174.353 69.1407ZM180.334 60.0011C175.31 60.0011 172.486 57.8956 172.486 54.4503C172.486 50.9572 176.697 47.7032 176.697 43.588C176.697 40.5255 176.314 37.7501 176.314 35.9318C176.314 30.0939 179.999 26.4093 188.804 26.4093C200.862 26.4093 205.025 29.0411 205.025 44.0665V56.3165C205.025 66.8917 213.974 74.8351 213.974 82.2042C213.974 87.9464 209.523 90.674 196.077 90.674C176.649 90.674 173.156 89.3341 173.156 85.4581C173.156 82.922 175.31 80.9122 185.885 79.2374C195.264 77.754 202.106 74.9308 202.106 67.2745C202.106 63.3029 199.714 57.7999 192.249 57.7999C188.899 57.7999 184.354 60.0011 180.334 60.0011ZM308.863 63.1115C309.868 59.0919 304.365 57.7042 302.738 62.2023C299.484 71.1505 292.785 76.8927 283.215 76.8927C271.156 76.8927 264.888 72.2511 264.744 51.7706C268.812 51.6749 274.219 51.5314 277.808 51.5314H301.446C306.136 51.5314 307.188 48.6603 307.188 45.1193C307.188 42.631 306.327 38.8507 306.327 35.9796C306.327 30.5245 307.38 26.4572 309.868 24.3517C312.021 22.5333 310.395 18.8966 307.093 19.9015C304.413 20.7628 301.398 20.7628 298.575 20.7628C293.742 20.7628 286.469 19.6622 280.583 19.6622C261.682 19.6622 246.178 25.1652 246.178 51.2921C246.178 78.6154 261.682 84.4532 280.296 84.4532C296.326 84.4532 305.083 78.089 308.863 63.1115ZM291.062 44.2101C285.799 44.2101 272.496 44.2579 265.031 44.0187C266.323 29.9503 271.73 26.7921 280.679 26.7443C286.564 26.7443 290.68 27.8927 294.604 32.3429C299.867 38.3722 297.714 44.2101 291.062 44.2101ZM345.326 20.9542C339.488 20.9542 334.799 20.5714 328.052 19.5665C325.133 19.1359 323.937 22.9161 326.999 24.3038C334.512 27.6534 338.053 30.6681 338.053 44.88V59.2355C338.053 73.4474 334.512 76.462 326.999 79.8116C323.937 81.1993 325.133 84.9796 328.052 84.549C334.799 83.5441 339.44 83.1613 345.278 83.1613C350.398 83.1613 354.562 83.6398 360.591 84.549C363.51 84.9796 364.706 81.1993 361.644 79.8116C355.231 76.9406 352.504 73.4474 352.504 59.2355V56.8907C352.504 39.4728 366.046 28.8019 376.238 28.8019C382.22 28.8019 385.043 31.5773 385.043 36.3146C385.043 41.4347 381.885 49.6652 381.885 64.9777V65.0255C381.885 74.5001 378.248 77.3234 372.697 79.8116C369.635 81.1993 370.831 84.9796 373.75 84.549C379.779 83.6398 383.942 83.1613 389.062 83.1613C394.853 83.1613 399.542 83.5441 406.241 84.549C409.16 84.9796 410.356 81.1993 407.294 79.8116C400.068 76.6056 396.527 73.6866 396.24 60.9103C396.527 49.8566 399.877 41.674 399.877 35.3097C399.877 24.1603 392.029 19.6622 383.177 19.6622C369.587 19.6622 360.304 25.0695 354.896 32.7257C352.982 35.5011 350.542 34.3527 351.834 31.0988C352.695 28.9454 353.078 26.84 353.078 25.0695C353.078 22.4855 350.925 20.9542 346.522 20.9542H345.326ZM498.116 79.8116C490.604 76.462 487.062 73.4474 487.062 59.2355V25.7394C487.062 11.5275 490.604 8.51282 498.116 5.16321C501.179 3.77551 499.982 -0.00476074 497.063 0.425903C490.747 1.38293 486.201 1.76575 480.842 1.8136C475.387 1.76575 470.745 1.43079 464.237 0.425903C461.318 -0.00476074 460.122 3.77551 463.185 5.16321C467.252 6.98157 469.31 8.84778 471.846 12.6281C473.903 15.6906 474.525 18.1788 474.525 20.1407C474.525 21.2413 473.999 21.8156 472.803 21.8156C469.884 21.8156 463.902 19.6622 452.227 19.6622C438.158 19.6622 425.812 25.548 425.812 36.6974C425.812 41.7697 428.54 46.5548 428.54 52.6798C428.54 58.0392 425.334 63.255 425.334 68.8536C425.334 79.9552 433.182 84.4532 442.034 84.4532C455.624 84.4532 464.62 78.8546 470.314 71.4376C472.037 69.1886 473.999 70.2892 473.377 73.0646C472.659 76.3663 472.229 78.5675 472.229 80.3859C472.229 82.8263 475.435 83.1613 479.789 83.1613C485.627 83.1613 490.316 83.5441 497.063 84.549C499.982 84.9796 501.179 81.1993 498.116 79.8116ZM440.168 67.8488C440.168 62.3458 445.001 57.2736 445.001 50.8136C445.001 45.6456 443.996 40.9562 443.996 37.8937C443.996 30.9073 447.681 26.4093 456.485 26.4093C468.496 26.4093 472.659 29.089 472.659 44.1144V47.2726C472.659 64.6427 459.165 75.3136 448.973 75.3136C442.991 75.3136 440.168 72.5382 440.168 67.8488ZM576.449 63.1115C577.454 59.0919 571.951 57.7042 570.324 62.2023C567.07 71.1505 560.371 76.8927 550.801 76.8927C538.742 76.8927 532.474 72.2511 532.33 51.7706C536.397 51.6749 541.805 51.5314 545.394 51.5314H569.032C573.722 51.5314 574.774 48.6603 574.774 45.1193C574.774 42.631 573.913 38.8507 573.913 35.9796C573.913 30.5245 574.966 26.4572 577.454 24.3517C579.607 22.5333 577.98 18.8966 574.679 19.9015C571.999 20.7628 568.984 20.7628 566.161 20.7628C561.328 20.7628 554.055 19.6622 548.169 19.6622C529.268 19.6622 513.764 25.1652 513.764 51.2921C513.764 78.6154 529.268 84.4532 547.882 84.4532C563.912 84.4532 572.669 78.089 576.449 63.1115ZM558.648 44.2101C553.385 44.2101 540.082 44.2579 532.617 44.0187C533.909 29.9503 539.316 26.7921 548.265 26.7443C554.15 26.7443 558.266 27.8927 562.189 32.3429C567.453 38.3722 565.3 44.2101 558.648 44.2101ZM612.96 20.9542C607.122 20.9542 602.433 20.5714 595.686 19.5665C592.767 19.1359 591.57 22.9161 594.633 24.3038C601.619 27.4142 605.208 30.2853 605.639 42.2003V59.2355C605.639 73.4474 602.098 76.462 594.585 79.8116C591.522 81.1993 592.719 84.9796 595.638 84.549C602.385 83.5441 607.074 83.1613 612.864 83.1613C619.181 83.1613 624.253 83.4484 631.526 84.549C634.445 84.9796 635.642 81.1993 632.579 79.8116C624.301 76.0792 620.09 73.4474 620.09 59.2355V54.546C620.09 41.7697 628.799 33.8263 640.57 33.8263C644.446 33.8263 646.36 34.7833 648.609 34.7355C650.763 34.6876 652.533 32.4386 652.533 27.0314C652.533 22.1505 650.858 19.6622 646.456 19.6622C634.972 19.6622 628.033 26.3136 622.482 34.1613C620.568 36.9366 618.128 35.7882 619.42 32.5343C620.473 29.9503 620.664 27.3185 620.664 25.1173C620.664 22.5333 618.511 20.9542 614.108 20.9542H612.96ZM673.827 83.0656C674.688 82.2042 675.55 80.4337 677.177 78.9503C678.756 77.5148 680.239 76.6534 681.101 75.6964C682.823 73.8781 682.823 72.1554 681.101 70.337C680.239 69.38 678.517 68.423 677.177 66.9874C675.646 65.3605 674.736 63.7814 673.827 62.8722C672.057 61.1495 670.238 61.1495 668.468 62.8722C667.463 63.8771 666.697 65.5519 665.022 66.9874C663.348 68.423 661.864 69.5714 661.099 70.337C659.28 72.1554 659.424 73.7345 661.099 75.6964C661.912 76.6534 663.539 77.4669 665.022 78.9503C666.745 80.6251 667.415 82.0128 668.468 83.0656C670.286 84.8361 672.057 84.8839 673.827 83.0656ZM744.073 43.1095L742.446 45.3585C741.441 46.7941 740.484 47.5597 739.288 47.5597C738.188 47.5597 737.039 47.129 734.838 44.8322L727.469 37.1281C724.693 34.257 723.928 33.1085 723.88 31.0509C723.832 28.0841 727.134 26.17 730.148 25.3087C733.929 24.2081 733.402 19.7101 730.148 19.7101C723.784 19.7101 718.329 21.0021 711.965 21.0021C705.17 21.0021 699.954 20.5236 692.92 19.7101C689.283 19.2794 689.235 23.6818 691.676 24.5909C698.231 26.9835 701.246 29.3761 709.62 37.9894L715.602 44.1622C720.291 48.9952 719.525 52.8712 714.07 59.1876L703.256 71.7247C697.849 77.9454 694.69 78.1368 691.771 79.2853C688.613 80.4816 688.996 84.6447 692.776 84.549C699.332 84.4054 703.256 83.1613 707.85 83.1613C713.688 83.1613 718.329 84.4532 724.837 84.4532C727.995 84.4532 728.043 79.4288 724.837 78.8546C721.057 78.1847 717.563 77.0363 716.654 73.5909C715.889 70.8156 715.937 68.1359 721.057 61.006L722.54 58.9962C723.545 57.5607 724.502 56.795 725.698 56.795C726.799 56.795 727.947 57.2257 730.148 59.5226L737.326 67.0353C740.102 69.9542 740.819 71.0548 740.867 73.1124C740.915 76.0792 737.661 77.9933 734.646 78.8546C730.866 79.9552 731.393 84.4532 734.646 84.4532C740.819 84.4532 746.131 83.1613 752.304 83.1613C759.242 83.1613 764.649 83.5919 771.875 84.4532C775.512 84.8839 775.56 80.4816 773.119 79.5724C766.563 77.1798 763.501 74.9308 755.175 66.174L749.385 60.1447C745.126 55.6945 745.796 51.3878 750.581 45.5499L761.443 32.3907C766.611 26.0743 769.961 25.9786 772.928 24.8302C776.038 23.6339 775.703 19.4708 771.923 19.5665C765.367 19.7101 761.396 20.9542 756.802 20.9542C751.155 20.9542 746.657 19.6622 740.341 19.6622C737.183 19.6622 737.135 24.6866 740.341 25.2609C744.073 25.9308 747.614 27.0792 748.523 30.5245C749.241 33.2999 749.289 35.8839 744.073 43.1095ZM829.536 67.2745C829.536 70.0499 825.325 71.5812 817.908 72.4425C799.438 74.548 789.963 79.4288 789.963 87.6115C789.963 96.5118 797.332 102.302 821.306 102.302C849.155 102.302 861.07 93.6407 861.07 80.9122C861.07 71.9161 853.701 66.4132 853.701 56.5558V44.88C853.701 30.6681 857.242 27.6534 864.755 24.3038C867.817 22.9161 866.621 19.1359 863.702 19.5665C856.955 20.5714 852.266 20.9542 846.428 20.9542C840.255 21.0978 837.862 22.7247 837.862 27.7013C837.862 34.7355 838.341 40.9562 838.532 44.4015L839.25 56.3165C839.872 66.8917 848.198 74.8351 848.198 82.2042C848.198 87.9464 843.748 90.674 830.302 90.674C810.874 90.674 807.381 89.3341 807.381 85.4581C807.381 82.922 809.534 80.9122 820.109 79.2374C829.488 77.754 836.331 74.9308 836.331 67.2745C836.331 63.4464 833.938 58.1349 826.952 58.1349C823.603 58.1349 819.87 60.0011 816.473 60.0011C811.448 60.0011 808.625 57.8956 808.625 54.4503C808.625 50.9572 812.549 47.8947 813.171 39.9034L814.032 29.3761C814.559 22.964 811.688 20.9542 805.562 20.9542H803.936C798.433 20.9542 793.982 20.4757 787.618 19.5665C784.699 19.1359 783.551 22.9161 786.565 24.3038C793.552 27.462 796.854 33.0607 796.854 41.1476C796.854 46.9376 793.791 51.4835 793.791 55.4552C793.791 65.2169 801.639 69.1407 810.491 69.1407C818.674 69.1407 824.895 64.9298 827.191 64.9298C828.531 64.9298 829.536 65.8868 829.536 67.2745ZM942.849 29.2325C944.906 26.8878 945.768 24.7345 945.768 23.2511C945.768 21.7677 944.523 20.9542 941.652 20.9542H895.763C892.652 20.9542 889.351 21.0021 886.384 20.045C882.795 18.9445 880.977 23.0118 883.369 25.0216C887.054 28.0841 887.724 30.8595 887.724 36.0753C887.724 40.2384 886.958 45.5021 886.336 49.2345C885.666 53.2062 891.025 54.3068 891.935 50.3829C894.04 41.2433 896.768 36.506 900.452 33.2042C905.572 28.6105 911.314 26.9357 916.817 26.9357C921.603 26.9357 922.895 27.6056 922.895 28.8019C922.895 29.9982 922.368 31.3859 918.396 35.9796L884.853 74.8829C882.795 77.2277 881.934 79.381 881.934 80.8644C881.934 82.3478 883.178 83.1613 886.049 83.1613H935.767C938.877 83.1613 942.179 83.1134 945.146 84.0704C948.734 85.171 950.553 81.1036 948.16 79.0939C944.188 75.7921 943.806 71.964 943.806 65.6476C943.806 60.7189 944.428 54.4503 945.193 50.0958C945.863 46.4591 940.552 44.8322 939.643 48.7081C937.25 59.1876 934.522 64.4991 931.077 68.5187C925.335 75.2179 917.679 77.1798 910.884 77.1798C906.099 77.1798 904.807 76.5099 904.807 75.3136C904.807 74.1173 905.333 72.7296 909.305 68.1359L942.849 29.2325Z" fill="#0000FF"/>
</svg>
